.local/share/icons/Gruvbox-Plus-Dark/mimetypes/scalable/application-users.svg

<svg width="256" height="256" viewBox="0 0 256 256" fill="none" xmlns="http://www.w3.org/2000/svg">
<g opacity="0.4" filter="url(#filter0_f)">
<path d="M55.0839 15.5636H155.608L216.009 75.7129L216.011 224.609C216.011 233.52 208.749 240.737 199.838 240.737H55.0838C46.1734 240.737 39 233.564 39 224.654V31.6474C39 22.737 46.1734 15.5636 55.0838 15.5636H55.0839Z" fill="#282828"/>
</g>
<path d="M55.0839 15H155.608L216.009 75.1493L216.011 224.045C216.011 232.956 208.749 240.174 199.838 240.174H55.0838C46.1734 240.174 39 233 39 224.09V31.0838C39 22.1734 46.1734 15 55.0838 15H55.0839Z" fill="#ebdbb2"/>
<path fill-rule="evenodd" clip-rule="evenodd" d="M168.672 112.819C168.672 126.039 157.941 136.756 144.703 136.756C131.466 136.756 120.735 126.039 120.735 112.819C120.735 99.5993 131.466 88.8823 144.703 88.8823C157.941 88.8823 168.672 99.5993 168.672 112.819ZM119.077 146.768C126.74 141.91 135.626 139.325 144.703 139.313C153.781 139.323 162.67 141.907 170.335 146.765C177.999 151.623 184.125 158.555 188 166.754H101.415C105.289 158.557 111.414 151.626 119.077 146.768Z" fill="url(#paint0_linear)"/>
<path fill-rule="evenodd" clip-rule="evenodd" d="M139.81 112.819C139.81 126.039 129.079 136.756 115.842 136.756C102.604 136.756 91.8731 126.039 91.8731 112.819C91.8731 99.5993 102.604 88.8823 115.842 88.8823C129.079 88.8823 139.81 99.5993 139.81 112.819ZM90.215 146.768C97.8781 141.91 106.765 139.325 115.841 139.313C124.919 139.323 133.808 141.907 141.473 146.765C149.138 151.623 155.264 158.555 159.138 166.754H72.5535C76.4274 158.557 82.552 151.626 90.215 146.768Z" fill="url(#paint1_linear)"/>
<path fill-rule="evenodd" clip-rule="evenodd" d="M119.094 136.538C130.793 134.953 139.81 124.938 139.81 112.819C139.81 99.5993 129.079 88.8823 115.842 88.8823C102.604 88.8823 91.8731 99.5993 91.8731 112.819C91.8731 124.939 100.892 134.954 112.592 136.538C113.654 136.682 114.737 136.756 115.838 136.756C115.839 136.756 115.84 136.756 115.842 136.756C115.843 136.756 115.843 136.756 115.844 136.756C116.946 136.756 118.031 136.682 119.094 136.538ZM126.301 137.528C135.936 133.455 142.697 123.926 142.697 112.819C142.697 98.0074 130.673 86 115.842 86C101.01 86 88.987 98.0074 88.987 112.819C88.987 123.927 95.7484 133.457 105.385 137.529C99.4782 138.778 93.8131 141.073 88.6683 144.334C80.5439 149.485 74.0505 156.833 69.9434 165.524L68 169.636H163.692L161.748 165.524C157.641 156.831 151.146 149.482 143.019 144.332C137.874 141.071 132.209 138.776 126.301 137.528ZM119.184 139.433C118.074 139.354 116.959 139.314 115.842 139.313C115.842 139.313 115.842 139.313 115.842 139.313C114.725 139.314 113.611 139.354 112.502 139.433C104.597 139.995 96.9355 142.508 90.215 146.768C83.4675 151.045 77.9127 156.93 74.037 163.872C73.5112 164.813 73.0163 165.775 72.5535 166.754H159.138C158.676 165.775 158.181 164.813 157.655 163.872C153.778 156.929 148.222 151.043 141.473 146.765C134.752 142.506 127.09 139.994 119.184 139.433Z" fill="#ebdbb2"/>
<path fill-rule="evenodd" clip-rule="evenodd" d="M155.609 22.9787H55.0839C50.58 22.9787 46.9787 26.5799 46.9787 31.0838V224.09C46.9787 228.594 50.5799 232.195 55.0838 232.195H199.838C204.371 232.195 208.032 228.521 208.032 224.046V75.1493L155.609 22.9787ZM155.608 15H55.0839C46.1735 15 39 22.1734 39 31.0838V224.09C39 233 46.1734 240.174 55.0838 240.174H199.838C208.749 240.174 216.011 232.956 216.011 224.045L216.009 75.1493L155.608 15Z" fill="url(#paint2_linear)"/>
<path opacity="0.25" d="M155.608 17V61.2306C155.608 70.141 162.867 77.1605 171.777 77.1605L216.009 77.1493V75.1493L155.608 17Z" fill="#282828"/>
<path d="M155.608 15V59.2306C155.608 68.141 162.867 75.1605 171.777 75.1605L216.009 75.1493L155.608 15Z" fill="url(#paint3_linear)"/>
<defs>
<filter id="filter0_f" x="23.8778" y="0.441412" width="207.255" height="255.418" filterUnits="userSpaceOnUse" color-interpolation-filters="sRGB">
<feFlood flood-opacity="0" result="BackgroundImageFix"/>
<feBlend mode="normal" in="SourceGraphic" in2="BackgroundImageFix" result="shape"/>
<feGaussianBlur stdDeviation="7.5611" result="effect1_foregroundBlur"/>
</filter>
<linearGradient id="paint0_linear" x1="101.415" y1="88.8823" x2="101.415" y2="166.754" gradientUnits="userSpaceOnUse">
<stop offset="1e-07" stop-color="#fe8019"/>
<stop offset="1" stop-color="#d65d0e"/>
</linearGradient>
<linearGradient id="paint1_linear" x1="72.5535" y1="88.8823" x2="72.5535" y2="166.754" gradientUnits="userSpaceOnUse">
<stop offset="1e-07" stop-color="#fe8019"/>
<stop offset="1" stop-color="#d65d0e"/>
</linearGradient>
<linearGradient id="paint2_linear" x1="39" y1="15" x2="39" y2="240.174" gradientUnits="userSpaceOnUse">
<stop offset="1e-07" stop-color="#fe8019"/>
<stop offset="1" stop-color="#d65d0e"/>
</linearGradient>
<linearGradient id="paint3_linear" x1="155.608" y1="15" x2="155.608" y2="75.1605" gradientUnits="userSpaceOnUse">
<stop offset="1e-07" stop-color="#fe8019"/>
<stop offset="1" stop-color="#d65d0e"/>
</linearGradient>
</defs>
</svg>

<svg width="256" height="256" fill="none" version="1.1" viewBox="0 0 256 256" xmlns="http://www.w3.org/2000/svg">
  <path d="m55.08 15h100.5l60.4 60.15 2e-3 148.9c0 8.911-7.262 16.13-16.17 16.13h-144.8c-8.91 0-16.08-7.174-16.08-16.08v-193c0-8.91 7.173-16.08 16.08-16.08h1e-4z" fill="#ebdbb2"/>
  <path d="m168.7 112.8c0 13.22-10.73 23.94-23.97 23.94-13.24 0-23.97-10.72-23.97-23.94 0-13.22 10.73-23.94 23.97-23.94 13.24 0 23.97 10.72 23.97 23.94zm-49.6 33.95c7.663-4.858 16.55-7.443 25.63-7.455 9.078 0.01 17.97 2.594 25.63 7.452 7.664 4.858 13.79 11.79 17.66 19.99h-86.58c3.874-8.197 9.999-15.13 17.66-19.99z" clip-rule="evenodd" fill="url(#paint0_linear)" fill-rule="evenodd"/>
  <path d="m139.8 112.8c0 13.22-10.73 23.94-23.97 23.94-13.24 0-23.97-10.72-23.97-23.94 0-13.22 10.73-23.94 23.97-23.94 13.24 0 23.97 10.72 23.97 23.94zm-49.6 33.95c7.663-4.858 16.55-7.443 25.63-7.455 9.078 0.01 17.97 2.594 25.63 7.452s13.79 11.79 17.66 19.99h-86.58c3.874-8.197 9.998-15.13 17.66-19.99z" clip-rule="evenodd" fill="url(#paint1_linear)" fill-rule="evenodd"/>
  <path d="m119.1 136.5c11.7-1.585 20.72-11.6 20.72-23.72 0-13.22-10.73-23.94-23.97-23.94-13.24 0-23.97 10.72-23.97 23.94 0 12.12 9.019 22.14 20.72 23.72 1.062 0.144 2.145 0.218 3.246 0.218h4e-3 2e-3c1.102 0 2.187-0.074 3.25-0.218zm7.207 0.99c9.635-4.073 16.4-13.6 16.4-24.71 0-14.81-12.02-26.82-26.86-26.82-14.83 0-26.86 12.01-26.86 26.82 0 11.11 6.761 20.64 16.4 24.71-5.907 1.249-11.57 3.544-16.72 6.805-8.124 5.151-14.62 12.5-18.72 21.19l-1.943 4.112h95.69l-1.944-4.112c-4.107-8.693-10.6-16.04-18.73-21.19-5.145-3.261-10.81-5.556-16.72-6.804zm-7.117 1.905c-1.11-0.079-2.225-0.119-3.342-0.12-1.117 1e-3 -2.231 0.041-3.34 0.12-7.905 0.562-15.57 3.075-22.29 7.335-6.748 4.277-12.3 10.16-16.18 17.1-0.5258 0.941-1.021 1.903-1.484 2.882h86.58c-0.462-0.979-0.957-1.941-1.483-2.882-3.877-6.943-9.433-12.83-16.18-17.11-6.721-4.259-14.38-6.771-22.29-7.332z" clip-rule="evenodd" fill="#ebdbb2" fill-rule="evenodd"/>
  <path d="m155.6 22.98h-100.5c-4.504 0-8.105 3.601-8.105 8.105v193c0 4.504 3.601 8.105 8.105 8.105h144.8c4.533 0 8.194-3.674 8.194-8.149v-148.9l-52.42-52.17zm-1e-3 -7.979h-100.5c-8.91 0-16.08 7.173-16.08 16.08v193c0 8.91 7.173 16.08 16.08 16.08h144.8c8.911 0 16.17-7.218 16.17-16.13l-2e-3 -148.9-60.4-60.15z" clip-rule="evenodd" fill="url(#paint2_linear)" fill-rule="evenodd"/>
  <path d="m155.6 17v44.23c0 8.91 7.259 15.93 16.17 15.93l44.23-0.0112v-2l-60.4-58.15z" fill="#282828" opacity=".25"/>
  <path d="m155.6 15v44.23c0 8.91 7.259 15.93 16.17 15.93l44.23-0.0112-60.4-60.15z" fill="url(#paint3_linear)"/>
  <defs>
    <linearGradient id="paint0_linear" x1="101.4" x2="101.4" y1="88.88" y2="166.8" gradientUnits="userSpaceOnUse">
      <stop stop-color="#fe8019" offset="1e-7"/>
      <stop stop-color="#d65d0e" offset="1"/>
    </linearGradient>
    <linearGradient id="paint1_linear" x1="72.55" x2="72.55" y1="88.88" y2="166.8" gradientUnits="userSpaceOnUse">
      <stop stop-color="#fe8019" offset="1e-7"/>
      <stop stop-color="#d65d0e" offset="1"/>
    </linearGradient>
    <linearGradient id="paint2_linear" x1="39" x2="39" y1="15" y2="240.2" gradientUnits="userSpaceOnUse">
      <stop stop-color="#fe8019" offset="1e-7"/>
      <stop stop-color="#d65d0e" offset="1"/>
    </linearGradient>
    <linearGradient id="paint3_linear" x1="155.6" x2="155.6" y1="15" y2="75.16" gradientUnits="userSpaceOnUse">
      <stop stop-color="#fe8019" offset="1e-7"/>
      <stop stop-color="#d65d0e" offset="1"/>
    </linearGradient>
  </defs>
</svg>
